svg/color/babaon.svg

<svg width="40" height="40" viewBox="0 0 40 40" fill="none" xmlns="http://www.w3.org/2000/svg">
<g clip-path="url(#clip0_820_3858)">
<path d="M20 0C31.0457 0 40 8.9543 40 20C40 31.0457 31.0457 40 20 40C8.95431 40 7.90517e-06 31.0457 0 20C6.58765e-07 8.95431 8.95431 1.97595e-06 20 0Z" fill="#FFE1CC"/>
<path d="M26 6C30.4183 6 34 9.58172 34 14V26C34 30.4183 30.4183 34 26 34H14C9.58172 34 6 30.4183 6 26V14C6 9.58172 9.58172 6 14 6H26Z" fill="#FF6A00"/>
<g clip-path="url(#clip1_820_3858)">
<path d="M21.9924 23.5166C21.1899 23.5532 21.2715 23.1341 21.7407 22.4882C22.8407 21.0149 24.924 18.9582 24.9957 17.5032C25.1215 15.6007 23.2099 14.9816 21.2449 14.9999C19.874 15.0182 18.4582 15.4099 17.494 15.7549C14.1665 16.9291 12.074 18.8132 10.7574 20.8966C9.35985 22.9616 9.81985 24.9357 12.7682 24.9999C15.0315 24.9091 16.5015 24.2816 18.0349 23.4982C18.0432 23.4982 13.7965 24.7091 12.2365 23.8174L12.2299 23.8157C12.069 23.7241 11.8932 23.5957 11.849 23.2466C11.839 22.5091 13.0657 21.7449 13.7515 21.4991V20.2216C14.2709 20.4237 14.8234 20.5272 15.3807 20.5266C16.4394 20.528 17.4644 20.1545 18.274 19.4724C18.3049 19.5807 18.3207 19.7041 18.3107 19.8449H18.6199C18.6599 19.5166 18.4765 19.2566 18.4765 19.2566C18.199 18.8157 17.714 18.8232 17.714 18.8232C17.714 18.8232 17.9765 18.9374 18.1549 19.2116C17.6241 19.6569 16.9898 19.9614 16.3105 20.0972C15.6311 20.2329 14.9284 20.1954 14.2674 19.9882L15.2757 18.9882L14.9957 18.2599C17.0249 17.5499 18.729 17.0041 21.5057 16.5224L20.884 16.0024L21.2082 15.8024C22.8832 16.2757 23.979 16.6232 23.919 17.5116C23.8836 17.6875 23.8271 17.8584 23.7507 18.0207C23.264 18.9857 21.8124 20.5957 21.2265 21.2691C20.839 21.7149 20.4599 22.1524 20.189 22.5707C19.9099 22.9899 19.739 23.3799 19.7299 23.7541C19.7657 26.6741 28.3415 22.3874 29.9999 21.2516C27.5474 22.3066 24.9057 23.3257 21.9924 23.5166Z" fill="white"/>
</g>
</g>
<defs>
<clipPath id="clip0_820_3858">
<rect width="40" height="40" fill="white"/>
</clipPath>
<clipPath id="clip1_820_3858">
<rect width="20" height="20" fill="white" transform="translate(10 10)"/>
</clipPath>
</defs>
</svg>

<svg xmlns="http://www.w3.org/2000/svg" width="40" height="40" fill="none" viewBox="0 0 40 40"><g clip-path="url(#babaon_svg-a)"><path fill="#FFE1CC" d="M20 0c11.046 0 20 8.954 20 20s-8.954 20-20 20S0 31.046 0 20 8.954 0 20 0"/><path fill="#FF6A00" d="M26 6a8 8 0 0 1 8 8v12a8 8 0 0 1-8 8H14a8 8 0 0 1-8-8V14a8 8 0 0 1 8-8z"/><g clip-path="url(#babaon_svg-b)"><path fill="#fff" d="M21.992 23.517c-.802.036-.72-.383-.251-1.029 1.1-1.473 3.183-3.53 3.255-4.985.126-1.902-1.786-2.521-3.751-2.503-1.371.018-2.787.41-3.751.755-3.328 1.174-5.42 3.058-6.737 5.142C9.36 22.962 9.82 24.936 12.768 25c2.263-.09 3.733-.718 5.267-1.502.008 0-4.238 1.211-5.799.32l-.006-.002c-.161-.092-.337-.22-.381-.57-.01-.737 1.217-1.501 1.902-1.747v-1.277a4.5 4.5 0 0 0 1.63.305 4.48 4.48 0 0 0 2.893-1.055c.03.109.047.232.037.373h.309a.92.92 0 0 0-.143-.588c-.278-.441-.763-.434-.763-.434s.263.114.44.389a4.13 4.13 0 0 1-3.887.776l1.009-1-.28-.728c2.029-.71 3.733-1.256 6.51-1.738l-.622-.52.324-.2c1.675.474 2.771.821 2.711 1.71a2.2 2.2 0 0 1-.168.509c-.487.965-1.939 2.575-2.524 3.248-.388.446-.767.883-1.038 1.302-.28.419-.45.809-.46 1.183.037 2.92 8.613-1.367 10.27-2.502-2.452 1.055-5.093 2.074-8.007 2.265"/></g></g><defs><clipPath id="babaon_svg-a"><path fill="#fff" d="M0 0h40v40H0z"/></clipPath><clipPath id="babaon_svg-b"><path fill="#fff" d="M10 10h20v20H10z"/></clipPath></defs></svg>
